X:1
T:Er'il bel viso suo
T:Er'il bel viso suo
T:Jean de Castro
T:Source : Chansons, madrigaux et motetz à 3 parties---Anvers---P.Palèse---1582. Editor : André Vierendeels (08/02/16).
T:Notes: Original clefs : C1, C3, C4 Editorial accidentals above the staff See also the "seconde partie": "E ne la face"(J.de Castro) Text by Ludovico Ariosto (Orlando furioso-Canto 65)
T:©
T:©
T:©
T:©
T:©
T:©
T:©
C:Jean de Castro
Z:©
%%score [ 1 [ 2 3 ] ]
L:1/8
Q:1/4=120
M:2/2
K:C
V:1 treble nm="Soprano" snm="S"
V:2 treble-8 nm="Tenor 1" snm="T 1"
V:3 treble-8 nm="Tenor 2" snm="T 2"
V:1
 z8 | A8 | A4 E4 | A4 G4 | c4 z2 A2 | A4 G4 | A4 B4 | c4 G4 | A8 | D8 | G8 | F8 | A8 | G8 | %14
w: |Er'|il bel|vi- so|suo, er'|il bel|vi- so|o, qual'|es-|ser|suo-|le|da|pri-|
 F4 E4- | E4 ^G4 | A4 c4 | B2 B2 d4- | d4 c4 | d4 A4 | F2 E2 F2 G2 | A4 A,4 | z4 A4 | A3 G F3 D | %24
w: ma- ver'|_ al-|cu- na|volt' il cie-||lo, quan-|do la piog- gia|ca- de,|quan-|do la piog- gia|
 F4 E2 c2 | A4 G4 | A4 B4 | c8 | G4 A4- | A4 A4 | G8 | A8 | z4 A4 | G8 | F4 E4- | E4 ^G4 | A4 c4 | %37
w: ca- de, quan-|do la|piog- gia|ca-|d'a'un tem-|* pe'il|so-|le,|si|sgom-|bra'in- tor|_ no'il|nu- bi-|
 B2 B2 d4- |"^#" d4 c4 | d4 A4 | F4 E4 | F4 G4 | A4 G2 F2 | E4 z2 c2 | A4 G4 | A4 B4 | c4 A4 | %47
w: li- so ve-||lo, e|co- me'il|ros- si-|gnuol, _ _|_ e|co- me'il|ros- si-|gnuol dol-|
 G6 G2 | G2 G2 _B4 | A8 | z4 A4 | G6 G2 | G2 G2 B4 | A4 z2 d2 | c6 c2 | c2 d2 B4 | A4 A4 | D4 D4 | %58
w: ci ca-|ro- le me-|na,|dol-|ci ca-|ro- le me-|na, dol-|ci ca-|ro- me me-|na, me-|na nei|
 E4 c4 | B4 A4- |"^#" A2 GF G4 | A8 | z4 A4 | A4 ^F4 | G4 G4 | z4 E4- | E4 F4 | E8 | z4 A4 | %69
w: ra- mi'a-|lor del|_ ver- de ste-|lo,|co-|si'al- le|bel- le|la-|* gri-|me,|co-|
 G4 A4 | G8- | G4 G4 | _B8- | B4 A4 | G4 G4 | A4 A2 B2 | c4 A4 | D8 |[M:3/2] E8 A4 | c8 A4 | %80
w: si'al- le|bel|_ le|la-|* gri-|me le|piu- me si|ba- gn'A-|mo-|re, e|god' al|
 G6 G2 A4 | D4 z4 A4 | G8 F4 | E6 D2 E4 | D12 |] %85
w: chia- ro lu-|me, e|god' al|chia- ro lu-|me.|
V:2
 d8 | d4 A4 | d4 c4 | f4 z2 f2 | f4 A4 | c4 B4 | c4 e4 | e8 | c8 | B2 c2 d4- | d4 c4 | d4 f4- | %12
w: Er'|il bel|vi- so|suo, er'|il bel|vi- so|suo, qual'|es-|ser|suo- * *||le da|
 f4 e4- | e4 d4 | c8- | c4 B4 | A4 a4 | g4 g4 | e8 | f4 f4 | d2 c2 d2 e2 | f2 F2 z2 c2 | %22
w: _ pri-|* ma-|ver'|_ al-|cu- na|volt' il|cie-|lo, quan-|do la poig- gia|ca- de, quan-|
 A2 G2 A2 B2 | c4 A2 d2 | d4 c4 | d4 e4 | A4 d4 | c2 B2 c2 d2 | e2 c2 f4- | f4 f4 | e8 | f4 f4- | %32
w: do la piog- gia|ca- de, quan-|do la|piog- gia|ca- d'a'un|tem- * * *||* pe'il|so-|le, si|
 f4 e4- | e4 d4 | c8- | c4 B4 | A4 a4 | g4 g4 | e8 | d4 z2 d2 | d4 ^c4 | d4 e4 | A4 z2 d2 | d4 c4 | %44
w: _ sgom-|* br'in-|tor-|* no'il|nu- bi-|lo- so|ve-|lo, e|co- me'il|ros- si-|gnuol, e|co- me'il|
 d4 e4 | ^f4 g4 | a2 a2 f4 | e4 z2 e2 | e2 e2 g2 g2 | f4 e4 | z4 f4 | e6 e2 | e2 e2 g4 | %53
w: ros- si-|gnuol dol-|ci ca- ro-|le, dol-|ci ca- ro- le|me- na,|dol-|ci ca-|ro- le me-|
 ^f4 z2 g2 | e6 e2 |"^#" a2 a2 g4 | a4 A4 | B4 d4 | c4 A4 | d4 d4 | B8 | A4 z2 f2 | e4 d4 | %63
w: na, dol-|ci ca-|ro- le me-|na, nei|ra- mi'a-|lor del|ver- de|ste-|lo, co-|si'al- le|
 ^c4 d4 | d6 d2 | c8 | z4 c4 | B4 A4 | B4 c4 | z4 e4- | e4 e4 | e8 | z4 g4- | g4 f4 | e4 e4 | %75
w: bel- le|la- gri-|me,|co-|si'al- le|bel- le|la-|* gri-|me,|la-|* gri-|me le|
 e4 ^f2 f2 |"^-natural" g4 f4- | f4 d4 |[M:3/2] c12- | c12 | z4 z4 e4 | g6 c2 c2 d2 | e4 e4 A4 | %83
w: piu- me si|ba- gn'A-|* mo-|re,|_|e|god' al chia- ro|lu- me, al|
 ^c6 d2 c4 | d12 |] %85
w: chia- ro lu-|me.|
V:3
 z8 | z8 | z8 | z8 | A8 | A4 E4 | A4 G4 | c8 | A8 | G4 F4 | E8 | D4 d4- | d4 c4- | c4 B4 | A8- | %15
w: ||||Er'|il bel|vi- so|suo,|qual'|es- ser|suo-|le da|_ pri-|* ma-|ver'|
 A4 E4 | F4 F4 | G4 G4 | A8 | d8 | z8 | z4 z2 A2 | F2 E2 F2 G2 | A4 D4 | z4 A4 | F4 E4 | F4 G4 | %27
w: _ al-|cu- na|volt' il|cie-|lo,||quan-|do la piog- gia|ca- de,|la|piog- gia|ca- d'a'un|
 A8 | c4 F4- | F4 F4 | c8 | F4 d4- | d4 c4- | c4 B4 | A8- | A4 E4 | F4 F4 | G4 G4 | A8 | D8 | %40
w: tem-|pe, tem-|* pe'il|so-|le, si|_ sgom-|* br'in|tor-|* no'il|nu- bi-|lo- so|ve-|lo,|
 z4 A4 | F4 E4 | F4 G4 | A8 | z4 c4 | A4 G4 | F4 F4 | c4 z2 c2 | c2 c2 G2 G2 | d4 A4 | z4 F4 | %51
w: e|co- me'il|ros- si-|gnuol,|e|com- me'il|ros- si-|gnuol dol-|ci ca- ro- le|me- na,|dol-|
 c6 c2 | c2 c2 G4 | d4 G4 | A6 A2 |"^#""^#" f2 d2 e4 | A4 F4 | G4 B4 | A4 F4 | G4 D4 | E8 | %61
w: ci ca-|ro- le me-|na, dol-|ci ca-|ro- le me-|na, nei|ra- mi'a-|lor del|ver- de|ste-|
 A4 z2 d2 | ^c4 d4 | A4 D4 | G6 G2 | A8 | z4 A4 | ^G4 A4 | E4 A4 | c8- | c4 c4 | c8 | G8- | G4 D4 | %74
w: lo, co-|si'al- le|bel- le|la- gri-|me,|co-|si'al- le|bel- le|la-|* gri-|me,|la-|* gri-|
 E4 E4 | A4 d2 d2 | c4 F4 |"^b" B8 |[M:3/2] A12 | A12 | c8 A4 | G6 A2 F4 | E8 D4 | A6 B2 A4 | %84
w: me le|piu- me si|ba- gn'A-|mo-|re,|e|god' al|chia- ro lu-|me, al|chia- ro lu-|
 D12 |] %85
w: me.|

